src/assets/duotone/Whatsapp.svg

<?xml version="1.0" encoding="UTF-8"?>
<svg width="24" height="24" viewBox="0 0 24 24" xmlns="http://www.w3.org/2000/svg">
 <path d="m6.9403 20.63c1.49 0.87 3.22 1.3701 5.06 1.3701 5.63 0 10.31-4.97 9.98-10.59-0.34-5.8-5.61-10.27-11.68-9.27-4.18 0.69-7.53 4.08-8.18 8.26-0.38 2.42 0.12002 4.7099 1.21 6.6l-0.89001 3.3099c-0.2 0.75 0.48998 1.43 1.23 1.22l3.27-0.9z" opacity=".4"/>
 <path d="m17 15.17c0 0.18-0.04 0.37-0.13 0.55s-0.2 0.35-0.34 0.51c-0.25 0.27-0.52 0.47-0.82 0.59-0.3 0.13-0.63 0.19-0.98 0.19-0.51 0-1.06-0.12-1.63-0.37-0.58-0.25-1.15-0.58-1.72-0.99-0.58-0.42-1.12-0.89-1.64-1.4-0.52-0.52-0.97996-1.07-1.4-1.64-0.41-0.57-0.74004-1.14-0.98004-1.71s-0.35999-1.12-0.35999-1.64c0-0.34 0.05999-0.67 0.17999-0.97 0.12-0.31 0.31002-0.59001 0.58002-0.84001 0.32-0.32 0.66998-0.46999 1.04-0.46999 0.14 0 0.28003 0.03 0.41003 0.09s0.24997 0.14999 0.33997 0.27999l1.15 1.65c0.09 0.13 0.16 0.23999 0.2 0.34999 0.05 0.11 0.07 0.21001 0.07 0.31001 0 0.12-0.04 0.23999-0.11 0.36003-0.07 0.12-0.16 0.24-0.28 0.36l-0.38 0.4c-0.06 0.06-0.08 0.12-0.08 0.2 0 0.04 0.01 0.08 0.02 0.12 0.02 0.04 0.03 0.07 0.04 0.1 0.09 0.17 0.25 0.38 0.47 0.64 0.23 0.26 0.47 0.53 0.73 0.79 0.27 0.27 0.53 0.51 0.8 0.74 0.26 0.22 0.48 0.37 0.65 0.46 0.03 0.01 0.06 0.03 0.09 0.04 0.04 0.02 0.08 0.02 0.13 0.02 0.09 0 0.15-0.03 0.21-0.09l0.38-0.38c0.13-0.13 0.25-0.22 0.36-0.28 0.12-0.07 0.23-0.11 0.36-0.11 0.1 0 0.2 0.02 0.31 0.07s0.23 0.11 0.35 0.2l1.66 1.18c0.13 0.09 0.22 0.2 0.28 0.32 0.01 0.11 0.04 0.23 0.04 0.37z"/>
</svg>

<svg width="24" height="24" viewBox="0 0 24 24"  xmlns="http://www.w3.org/2000/svg">
<path opacity="0.4" d="M6.9403 20.6304C8.4303 21.5004 10.1603 22.0005 12.0003 22.0005C17.6303 22.0005 22.3103 17.0305 21.9803 11.4105C21.6403 5.61045 16.3703 1.14045 10.3003 2.14045C6.12029 2.83045 2.77029 6.22045 2.12029 10.4005C1.74029 12.8205 2.24031 15.1104 3.33031 17.0005L2.4403 20.3104C2.2403 21.0604 2.93028 21.7404 3.67028 21.5304L6.9403 20.6304Z" />
<path d="M17 15.1705C17 15.3505 16.96 15.5405 16.87 15.7205C16.78 15.9005 16.67 16.0705 16.53 16.2305C16.28 16.5005 16.01 16.7005 15.71 16.8205C15.41 16.9505 15.08 17.0105 14.73 17.0105C14.22 17.0105 13.67 16.8905 13.1 16.6405C12.52 16.3905 11.95 16.0605 11.38 15.6505C10.8 15.2305 10.26 14.7605 9.73999 14.2505C9.21999 13.7305 8.76003 13.1805 8.34003 12.6105C7.93003 12.0405 7.59999 11.4705 7.35999 10.9005C7.11999 10.3305 7 9.78047 7 9.26047C7 8.92047 7.05999 8.59047 7.17999 8.29047C7.29999 7.98047 7.49001 7.70046 7.76001 7.45046C8.08001 7.13046 8.42999 6.98047 8.79999 6.98047C8.93999 6.98047 9.08002 7.01047 9.21002 7.07047C9.34002 7.13047 9.45999 7.22046 9.54999 7.35046L10.7 9.00047C10.79 9.13047 10.86 9.24046 10.9 9.35046C10.95 9.46046 10.97 9.56047 10.97 9.66047C10.97 9.78047 10.93 9.90046 10.86 10.0205C10.79 10.1405 10.7 10.2605 10.58 10.3805L10.2 10.7805C10.14 10.8405 10.12 10.9005 10.12 10.9805C10.12 11.0205 10.13 11.0605 10.14 11.1005C10.16 11.1405 10.17 11.1705 10.18 11.2005C10.27 11.3705 10.43 11.5805 10.65 11.8405C10.88 12.1005 11.12 12.3705 11.38 12.6305C11.65 12.9005 11.91 13.1405 12.18 13.3705C12.44 13.5905 12.66 13.7405 12.83 13.8305C12.86 13.8405 12.89 13.8605 12.92 13.8705C12.96 13.8905 13 13.8905 13.05 13.8905C13.14 13.8905 13.2 13.8605 13.26 13.8005L13.64 13.4205C13.77 13.2905 13.89 13.2005 14 13.1405C14.12 13.0705 14.23 13.0305 14.36 13.0305C14.46 13.0305 14.56 13.0505 14.67 13.1005C14.78 13.1505 14.9 13.2105 15.02 13.3005L16.68 14.4805C16.81 14.5705 16.9 14.6805 16.96 14.8005C16.97 14.9105 17 15.0305 17 15.1705Z" />
</svg>
